X:1
T:Title
%%score { ( 1 3 ) | ( 2 4 ) }
L:1/8
M:4/4
K:Ab
V:1 treble nm="Grand Piano"
V:3 treble 
V:2 bass 
V:4 bass 
V:1
 z4 z2[Q:1/4=100] [CA]>[DB] | [Ec]2 [EB]>[EA] [DF]2 [DE]2 | [CA]6 c>d | e2 c>B A2 F2 |[M:3/4] B6 | %5
[M:1/4] B>c |[M:4/4] [Gd]2 [_Gc]>[Gc] [=Gd]2 [EB]>[EB] | [Ec]2 [=D_c]>[Dc] [E=c]2 [EA]>[EA] | %8
 [DB]2 [DF]>[Fd] [Ec] [DB]3 |[M:3/4] [A,CA]6 |[M:1/4] c>d |[M:4/4] e6 z2 | %12
 [A,CA]2 [DFA]2 [CEA]2 [CA]>[DB] | z4 z c3 | B6 z2 | [Gd]<[Gd] [_Gc]2 [=Gd]2 [GB]>[GB] | %16
 c>c _c2 =c2 [Ad]>[Af] | [Ae]2 [EAc]>[FAd] [EAc] .[DGB]3 |[M:3/4] [CEA]6 |] %19
V:2
 z4 z2 [A,,E,]>[A,,E,] | [A,,A,]2 [B,,G,]>[C,A,] [D,A,]2 [E,G,]2 | %2
 [A,,A,]6[K:treble] [A,E]>[A,B,E] | [A,CA]2 [A,E]>[G,B,E][K:bass] [F,CF]2 [B,=D]2 | %4
[M:3/4] [E,G,E]6 |[M:1/4] [E,G,E]>[E,A,E] |[M:4/4] [E,B,]2 [E,=A,]>[E,A,] [E,B,]2 [E,G,]>[E,G,] | %7
 [A,,A,]2 [A,,A,]>[A,,A,] [A,,A,]2 [C,A,]>[C,A,] | [D,F,]2 [D,A,]>[D,A,] [E,A,] [E,G,]3 | %9
[M:3/4] A,,6 |[M:1/4][K:treble] A>B |[M:4/4] c6[K:bass] z2 | A,,2 A,,2 A,,2 [A,,A,]>[A,,A,] | %13
 [A,,A,]2 [C,A,]>[E,A,E] [A,E] [A,E]2 A, | [G,B,E]2 [F,A,]2 [E,G,]2 [E,G,E]>[E,A,E] | %15
 [E,B,]<[E,B,] [E,=A,]2 [E,B,]2 [E,E]>[E,E] | [A,EA]>[A,EA] [A,=DA]2 [A,EA]2[K:bass] [F,_D]>[D,D] | %17
 [E,C]2 E,>E, .E,2 z E |[M:3/4] A,,6 |] %19
V:3
 x8 | x8 | x8 | x8 |[M:3/4] x6 |[M:1/4] x2 |[M:4/4] x8 | x8 | x8 |[M:3/4] x6 |[M:1/4] x2 | %11
[M:4/4] z2 A,>C E2 c>B | x8 | [Ec]2 [Ec]>c .c2 z E | z2 =D2 E2 B>c | x8 | x8 | x8 |[M:3/4] x6 |] %19
V:4
 x8 | x8 | x6[K:treble] x2 | x4[K:bass] x4 |[M:3/4] x6 |[M:1/4] x2 |[M:4/4] x8 | x8 | x8 | %9
[M:3/4] x6 |[M:1/4][K:treble] x2 |[M:4/4] z2 z z/ A,/ A,2[K:bass] [A,E]>[E,G,D] | x8 | x8 | x8 | %15
 x8 | x6[K:bass] x2 | z4 z E,3 |[M:3/4] x6 |] %19

